images/instagram.svg

<svg height="17" viewBox="0 0 17 17" width="17" xmlns="http://www.w3.org/2000/svg"><path d="m66.691 578a4.7 4.7 0 0 1 -4.691-4.692v-7.618a4.7 4.7 0 0 1 4.691-4.69h7.618a4.7 4.7 0 0 1 4.691 4.69v7.618a4.7 4.7 0 0 1 -4.691 4.692zm-3.182-12.31v7.618a3.185 3.185 0 0 0 3.182 3.183h7.618a3.187 3.187 0 0 0 3.183-3.183v-7.618a3.187 3.187 0 0 0 -3.183-3.182h-7.618a3.186 3.186 0 0 0 -3.182 3.182zm2.611 3.81a4.38 4.38 0 1 1 4.38 4.38 4.386 4.386 0 0 1 -4.381-4.38zm1.508 0a2.872 2.872 0 1 0 2.872-2.873 2.875 2.875 0 0 0 -2.872 2.873zm6.655-3.771a1.108 1.108 0 1 1 .782.323 1.114 1.114 0 0 1 -.783-.323z" fill="#fff" transform="translate(-62 -561)"/></svg>

<svg xmlns="http://www.w3.org/2000/svg" width="17" height="17" viewBox="0 0 17 17"><path d="M66.691,578A4.7,4.7,0,0,1,62,573.308V565.69A4.7,4.7,0,0,1,66.691,561h7.618A4.7,4.7,0,0,1,79,565.69v7.618A4.7,4.7,0,0,1,74.309,578ZM63.509,565.69v7.618a3.185,3.185,0,0,0,3.182,3.183h7.618a3.187,3.187,0,0,0,3.183-3.183V565.69a3.187,3.187,0,0,0-3.183-3.182H66.691A3.186,3.186,0,0,0,63.509,565.69Zm2.611,3.81a4.38,4.38,0,1,1,4.38,4.38A4.386,4.386,0,0,1,66.119,569.5Zm1.508,0a2.872,2.872,0,1,0,2.872-2.873A2.875,2.875,0,0,0,67.628,569.5Zm6.655-3.771a1.108,1.108,0,1,1,.782.323A1.114,1.114,0,0,1,74.282,565.729Z" transform="translate(-62 -561)" fill="#fff"/></svg>
